Newaita-dark/apps/22/maps.svg

<?xml version="1.0" encoding="UTF-8"?>
<svg xmlns="http://www.w3.org/2000/svg" xmlns:xlink="http://www.w3.org/1999/xlink" width="22pt" height="22pt" viewBox="0 0 22 22" version="1.1">
<defs>
<linearGradient id="linear0" gradientUnits="userSpaceOnUse" x1="254" y1="233.5" x2="254" y2="-168.666672" gradientTransform="matrix(0.0429729,0,0,0.0429729,0,9.239163)">
<stop offset="0" style="stop-color:rgb(39.215686%,70.980392%,96.470588%);stop-opacity:1;"/>
<stop offset="1" style="stop-color:rgb(56.470588%,79.215686%,97.647059%);stop-opacity:1;"/>
</linearGradient>
<linearGradient id="linear1" gradientUnits="userSpaceOnUse" x1="254" y1="233.5" x2="254" y2="254.666672" gradientTransform="matrix(0.0429729,0,0,0.0429729,-0.00000262285,9.239165)">
<stop offset="0" style="stop-color:rgb(0%,0%,0%);stop-opacity:0.27451;"/>
<stop offset="1" style="stop-color:rgb(0%,0%,0%);stop-opacity:0;"/>
</linearGradient>
<radialGradient id="radial0" gradientUnits="userSpaceOnUse" cx="450.908936" cy="189.579361" fx="450.908936" fy="189.579361" r="21.166656" gradientTransform="matrix(0.000000119742,-0.0537161,-0.0966889,-0.0000000698078,36.522014,43.721791)">
<stop offset="0" style="stop-color:rgb(0%,0%,0%);stop-opacity:0.313725;"/>
<stop offset="0.222222" style="stop-color:rgb(0%,0%,0%);stop-opacity:0.27451;"/>
<stop offset="1" style="stop-color:rgb(0%,0%,0%);stop-opacity:0;"/>
</radialGradient>
<radialGradient id="radial1" gradientUnits="userSpaceOnUse" cx="450.908936" cy="189.579361" fx="450.908936" fy="189.579361" r="21.166656" gradientTransform="matrix(-0.000000119742,0.0537161,0.0966889,0.0000000698078,-14.578108,-5.175142)">
<stop offset="0" style="stop-color:rgb(0%,0%,0%);stop-opacity:0.313725;"/>
<stop offset="0.222222" style="stop-color:rgb(0%,0%,0%);stop-opacity:0.27451;"/>
<stop offset="1" style="stop-color:rgb(0%,0%,0%);stop-opacity:0;"/>
</radialGradient>
<radialGradient id="radial2" gradientUnits="userSpaceOnUse" cx="450.908936" cy="189.579361" fx="450.908936" fy="189.579361" r="21.166656" gradientTransform="matrix(-0.000000119742,-0.0537161,0.0966889,-0.0000000698078,-14.578108,43.721791)">
<stop offset="0" style="stop-color:rgb(0%,0%,0%);stop-opacity:0.313725;"/>
<stop offset="0.222222" style="stop-color:rgb(0%,0%,0%);stop-opacity:0.27451;"/>
<stop offset="1" style="stop-color:rgb(0%,0%,0%);stop-opacity:0;"/>
</radialGradient>
<radialGradient id="radial3" gradientUnits="userSpaceOnUse" cx="450.908936" cy="189.579361" fx="450.908936" fy="189.579361" r="21.166656" gradientTransform="matrix(0.000000119742,0.0537161,-0.0966889,0.0000000698078,36.522013,-5.175142)">
<stop offset="0" style="stop-color:rgb(0%,0%,0%);stop-opacity:0.313725;"/>
<stop offset="0.222222" style="stop-color:rgb(0%,0%,0%);stop-opacity:0.27451;"/>
<stop offset="1" style="stop-color:rgb(0%,0%,0%);stop-opacity:0;"/>
</radialGradient>
<linearGradient id="linear2" gradientUnits="userSpaceOnUse" x1="306.916656" y1="233.5" x2="317.5" y2="-147.5" gradientTransform="matrix(0.0429729,0,0,0.0429729,0,9.239163)">
<stop offset="0" style="stop-color:rgb(29.803922%,68.627451%,31.372549%);stop-opacity:1;"/>
<stop offset="1" style="stop-color:rgb(40%,73.333333%,41.568627%);stop-opacity:1;"/>
</linearGradient>
<linearGradient id="linear3" gradientUnits="userSpaceOnUse" x1="960" y1="1695.118164" x2="960" y2="175.118118" gradientTransform="matrix(1,0,0,1,0,0)">
<stop offset="0" style="stop-color:rgb(84.313725%,80%,78.431373%);stop-opacity:1;"/>
<stop offset="1" style="stop-color:rgb(93.72549%,92.156863%,91.372549%);stop-opacity:1;"/>
</linearGradient>
<linearGradient id="linear4" gradientUnits="userSpaceOnUse" x1="1240" y1="495.118103" x2="1240" y2="1375.118164" gradientTransform="matrix(0.264583,0,0,0.264583,0,-257.333099)">
<stop offset="0" style="stop-color:rgb(93.72549%,32.54902%,31.372549%);stop-opacity:1;"/>
<stop offset="1" style="stop-color:rgb(95.686275%,26.27451%,21.176471%);stop-opacity:1;"/>
</linearGradient>
</defs>
<g id="surface1">
<path style=" stroke:none;fill-rule:nonzero;fill:url(#linear0);" d="M 2.5 1.992188 L 19.328125 1.992188 C 19.707031 1.992188 20.011719 2.296875 20.011719 2.671875 L 20.011719 18.589844 C 20.011719 18.96875 19.707031 19.273438 19.328125 19.273438 L 2.5 19.273438 C 2.125 19.273438 1.820312 18.96875 1.820312 18.589844 L 1.820312 2.671875 C 1.820312 2.296875 2.125 1.992188 2.5 1.992188 Z M 2.5 1.992188 "/>
<path style=" stroke:none;fill-rule:nonzero;fill:url(#linear1);" d="M 3.523438 19.273438 L 18.417969 19.273438 L 18.417969 20.183594 L 3.523438 20.183594 Z M 3.523438 19.273438 "/>
<path style=" stroke:none;fill-rule:nonzero;fill:url(#radial0);" d="M 18.417969 19.273438 L 20.238281 19.273438 L 20.238281 18.363281 L 18.417969 18.363281 Z M 18.417969 19.273438 "/>
<path style=" stroke:none;fill-rule:nonzero;fill:url(#radial1);" d="M 3.523438 19.273438 L 1.707031 19.273438 L 1.707031 20.183594 L 3.523438 20.183594 Z M 3.523438 19.273438 "/>
<path style=" stroke:none;fill-rule:nonzero;fill:url(#radial2);" d="M 3.523438 19.273438 L 1.707031 19.273438 L 1.707031 18.363281 L 3.523438 18.363281 Z M 3.523438 19.273438 "/>
<path style=" stroke:none;fill-rule:nonzero;fill:url(#radial3);" d="M 18.417969 19.273438 L 20.238281 19.273438 L 20.238281 20.183594 L 18.417969 20.183594 Z M 18.417969 19.273438 "/>
<path style=" stroke:none;fill-rule:nonzero;fill:url(#linear2);" d="M 20.011719 2.902344 L 12.191406 10.511719 L 20.011719 17.910156 Z M 10.804688 11.855469 L 3.183594 19.273438 L 18.648438 19.273438 Z M 10.804688 11.855469 "/>
<path style=" stroke:none;fill-rule:nonzero;fill:rgb(0%,0%,0%);fill-opacity:0.196078;" d="M 2.730469 19.273438 C 2.226562 19.273438 1.820312 18.867188 1.820312 18.363281 L 1.820312 18.25 C 1.820312 18.753906 2.226562 19.160156 2.730469 19.160156 L 19.101562 19.160156 C 19.605469 19.160156 20.011719 18.753906 20.011719 18.25 L 20.011719 18.363281 C 20.011719 18.867188 19.605469 19.273438 19.101562 19.273438 Z M 2.730469 19.273438 "/>
<path style="fill-rule:evenodd;fill:url(#linear3);stroke-width:11.338583;stroke-linecap:butt;stroke-linejoin:miter;stroke:rgb(12.941177%,12.941177%,12.941177%);stroke-opacity:1;stroke-miterlimit:4;" d="M 1640.15842 175.215918 L 160.099251 1575.225462 L 160.099251 1635.00501 C 160.099251 1668.330391 186.89698 1695.128119 219.878799 1695.128119 L 280.001909 1695.128119 L 950.288686 1042.706494 L 1640.15842 1695.128119 L 1699.937968 1695.128119 C 1733.263349 1695.128119 1760.061077 1668.330391 1760.061077 1635.00501 L 1760.061077 1575.225462 L 1072.252708 924.52164 L 1760.061077 255.265544 L 1760.061077 234.995467 C 1760.061077 202.013647 1733.263349 175.215918 1699.937968 175.215918 Z M 1640.15842 175.215918 " transform="matrix(0.0113699,0,0,0.0113699,0,0)"/>
<path style=" stroke:none;fill-rule:nonzero;fill:rgb(100%,100%,100%);fill-opacity:0.643137;" d="M 2.730469 1.992188 C 2.226562 1.992188 1.820312 2.398438 1.820312 2.902344 L 1.820312 3.015625 C 1.820312 2.511719 2.226562 2.105469 2.730469 2.105469 L 19.101562 2.105469 C 19.605469 2.105469 20.011719 2.511719 20.011719 3.015625 L 20.011719 2.902344 C 20.011719 2.398438 19.605469 1.992188 19.101562 1.992188 Z M 2.730469 1.992188 "/>
<path style=" stroke:none;fill-rule:nonzero;fill:rgb(12.941177%,12.941177%,12.941177%);fill-opacity:1;" d="M 2.5 1.925781 C 2.089844 1.925781 1.753906 2.261719 1.753906 2.671875 L 1.753906 18.589844 C 1.753906 19.003906 2.089844 19.335938 2.5 19.335938 L 19.328125 19.335938 C 19.742188 19.335938 20.074219 19.003906 20.074219 18.589844 L 20.074219 2.671875 C 20.074219 2.261719 19.742188 1.925781 19.328125 1.925781 Z M 2.5 2.054688 L 19.328125 2.054688 C 19.671875 2.054688 19.945312 2.328125 19.945312 2.671875 L 19.945312 18.589844 C 19.945312 18.933594 19.671875 19.207031 19.328125 19.207031 L 2.5 19.207031 C 2.15625 19.207031 1.882812 18.933594 1.882812 18.589844 L 1.882812 2.671875 C 1.882812 2.328125 2.15625 2.054688 2.5 2.054688 Z M 2.5 2.054688 "/>
<path style="fill-rule:nonzero;fill:url(#linear4);stroke-width:3;stroke-linecap:round;stroke-linejoin:miter;stroke:rgb(12.941177%,12.941177%,12.941177%);stroke-opacity:1;stroke-miterlimit:4;" d="M 328.059581 -126.3721 C 287.063496 -126.3721 253.975747 -93.284351 253.975747 -52.288265 C 253.975747 16.523345 306.879785 85.334956 328.059581 106.514751 C 343.967153 85.334956 402.143415 16.523345 402.143415 -52.288265 C 402.143415 -93.284351 369.146566 -126.3721 328.059581 -126.3721 Z M 328.059581 -84.012509 C 345.694261 -84.012509 359.874725 -69.832045 359.874725 -52.288265 C 359.874725 -34.653586 345.694261 -20.473122 328.059581 -20.473122 C 310.515802 -20.473122 296.335338 -34.653586 296.335338 -52.288265 C 296.335338 -69.832045 310.515802 -84.012509 328.059581 -84.012509 Z M 328.059581 -84.012509 " transform="matrix(0.0429729,0,0,0.0429729,0,9.239163)"/>
</g>
</svg>

<svg xmlns="http://www.w3.org/2000/svg" width="22pt" height="22pt" viewBox="0 0 22 22"><defs><linearGradient id="a" gradientUnits="userSpaceOnUse" x1="254" y1="233.5" x2="254" y2="-168.667" gradientTransform="matrix(.04297 0 0 .04297 0 9.24)"><stop offset="0" stop-color="#64b5f6"/><stop offset="1" stop-color="#90caf9"/></linearGradient><linearGradient id="b" gradientUnits="userSpaceOnUse" x1="254" y1="233.5" x2="254" y2="254.667" gradientTransform="matrix(.04297 0 0 .04297 0 9.24)"><stop offset="0" stop-opacity=".275"/><stop offset="1" stop-opacity="0"/></linearGradient><radialGradient id="c" gradientUnits="userSpaceOnUse" cx="450.909" cy="189.579" fx="450.909" fy="189.579" r="21.167" gradientTransform="matrix(0 -.05372 -.09669 0 36.522 43.722)"><stop offset="0" stop-opacity=".314"/><stop offset=".222" stop-opacity=".275"/><stop offset="1" stop-opacity="0"/></radialGradient><radialGradient id="d" gradientUnits="userSpaceOnUse" cx="450.909" cy="189.579" fx="450.909" fy="189.579" r="21.167" gradientTransform="matrix(0 .05372 .09669 0 -14.578 -5.175)"><stop offset="0" stop-opacity=".314"/><stop offset=".222" stop-opacity=".275"/><stop offset="1" stop-opacity="0"/></radialGradient><radialGradient id="e" gradientUnits="userSpaceOnUse" cx="450.909" cy="189.579" fx="450.909" fy="189.579" r="21.167" gradientTransform="matrix(0 -.05372 .09669 0 -14.578 43.722)"><stop offset="0" stop-opacity=".314"/><stop offset=".222" stop-opacity=".275"/><stop offset="1" stop-opacity="0"/></radialGradient><radialGradient id="f" gradientUnits="userSpaceOnUse" cx="450.909" cy="189.579" fx="450.909" fy="189.579" r="21.167" gradientTransform="matrix(0 .05372 -.09669 0 36.522 -5.175)"><stop offset="0" stop-opacity=".314"/><stop offset=".222" stop-opacity=".275"/><stop offset="1" stop-opacity="0"/></radialGradient><linearGradient id="g" gradientUnits="userSpaceOnUse" x1="306.917" y1="233.5" x2="317.5" y2="-147.5" gradientTransform="matrix(.04297 0 0 .04297 0 9.24)"><stop offset="0" stop-color="#4caf50"/><stop offset="1" stop-color="#66bb6a"/></linearGradient><linearGradient id="h" gradientUnits="userSpaceOnUse" x1="960" y1="1695.118" x2="960" y2="175.118"><stop offset="0" stop-color="#d7ccc8"/><stop offset="1" stop-color="#efebe9"/></linearGradient><linearGradient id="i" gradientUnits="userSpaceOnUse" x1="1240" y1="495.118" x2="1240" y2="1375.118" gradientTransform="matrix(.26458 0 0 .26458 0 -257.333)"><stop offset="0" stop-color="#ef5350"/><stop offset="1" stop-color="#f44336"/></linearGradient></defs><path d="M2.5 1.992h16.828c.379 0 .684.305.684.68V18.59a.682.682 0 0 1-.684.683H2.5a.681.681 0 0 1-.68-.683V2.672a.68.68 0 0 1 .68-.68zm0 0" fill="url(#a)"/><path d="M3.523 19.273h14.895v.91H3.523zm0 0" fill="url(#b)"/><path d="M18.418 19.273h1.82v-.91h-1.82zm0 0" fill="url(#c)"/><path d="M3.523 19.273H1.707v.91h1.816zm0 0" fill="url(#d)"/><path d="M3.523 19.273H1.707v-.91h1.816zm0 0" fill="url(#e)"/><path d="M18.418 19.273h1.82v.91h-1.82zm0 0" fill="url(#f)"/><path d="M20.012 2.902l-7.82 7.61 7.82 7.398zm-9.207 8.953l-7.621 7.418h15.464zm0 0" fill="url(#g)"/><path d="M2.73 19.273a.909.909 0 0 1-.91-.91v-.113c0 .504.407.91.91.91h16.372c.503 0 .91-.406.91-.91v.113c0 .504-.407.91-.91.91zm0 0" fill-opacity=".196"/><path d="M1640.158 175.216L160.1 1575.226v59.779c0 33.325 26.798 60.123 59.78 60.123h60.123l670.287-652.422 689.87 652.422h59.779c33.325 0 60.123-26.798 60.123-60.123v-59.78l-687.808-650.703 687.808-669.256v-20.27c0-32.982-26.798-59.78-60.123-59.78zm0 0" transform="rotate(.24) scale(.01137)" fill-rule="evenodd" fill="url(#h)" stroke-width="11.339" stroke="#212121"/><path d="M2.73 1.992a.909.909 0 0 0-.91.91v.114c0-.504.407-.91.91-.91h16.372c.503 0 .91.406.91.91v-.114a.909.909 0 0 0-.91-.91zm0 0" fill="#fff" fill-opacity=".643"/><path d="M2.5 1.926a.749.749 0 0 0-.746.746V18.59c0 .414.336.746.746.746h16.828a.744.744 0 0 0 .746-.746V2.672a.746.746 0 0 0-.746-.746zm0 .129h16.828c.344 0 .617.273.617.617V18.59a.614.614 0 0 1-.617.617H2.5a.614.614 0 0 1-.617-.617V2.672c0-.344.273-.617.617-.617zm0 0" fill="#212121"/><path d="M328.06-126.372c-40.997 0-74.084 33.088-74.084 74.084 0 68.811 52.904 137.623 74.084 158.803 15.907-21.18 74.083-89.992 74.083-158.803 0-40.996-32.996-74.084-74.083-74.084zm0 42.36c17.634 0 31.815 14.18 31.815 31.724a31.734 31.734 0 0 1-31.815 31.815c-17.544 0-31.725-14.18-31.725-31.815 0-17.544 14.18-31.725 31.725-31.725zm0 0" transform="matrix(.04297 0 0 .04297 0 9.24)" fill="url(#i)" stroke-width="3" stroke-linecap="round" stroke="#212121"/></svg>
